packages/astro-components-stencil/src/icons/timer-off.svg

<svg width="24" height="24" viewBox="0 0 24 24" fill="none" xmlns="http://www.w3.org/2000/svg">
<path fill-rule="evenodd" clip-rule="evenodd" d="M9.99998 3H14C14.55 3 15 2.55 15 2C15 1.45 14.55 1 14 1H9.99998C9.44998 1 8.99998 1.45 8.99998 2C8.99998 2.55 9.44998 3 9.99998 3ZM12 8C11.49 8 11.08 8.39 11.02 8.89L13 10.86V9C13 8.45 12.55 8 12 8ZM19 13C19 9.13 15.87 6 12 6C10.88 6 9.81998 6.27 8.87998 6.74L7.42998 5.29C8.77998 4.48 10.34 4 12 4C14.12 4 16.07 4.74 17.62 5.98L18.37 5.23C18.76 4.85 19.38 4.84 19.77 5.23L19.78 5.24C20.17 5.63 20.16 6.26 19.78 6.64L19.03 7.39C20.26 8.93 21 10.88 21 13C21 14.68 20.53 16.25 19.73 17.59L18.26 16.12C18.73 15.18 19 14.12 19 13ZM20.19 20.88L3.86998 4.56C3.47998 4.17 2.84998 4.17 2.45998 4.56C2.06998 4.95 2.06998 5.58 2.45998 5.97L4.52998 8.04C3.60998 9.42 3.04998 11.03 2.99998 12.76C2.86998 17.84 6.93998 22 12 22C13.84 22 15.55 21.45 16.98 20.5L18.77 22.29C19.16 22.68 19.79 22.68 20.18 22.29C20.58 21.9 20.58 21.27 20.19 20.88ZM4.99998 13C4.99998 16.87 8.12998 20 12 20C13.29 20 14.49 19.65 15.53 19.05L5.95998 9.48C5.34998 10.51 4.99998 11.71 4.99998 13Z" fill="black"/>
</svg>

<svg xmlns="http://www.w3.org/2000/svg" viewBox="0 0 24 24"><g xmlns="http://www.w3.org/2000/svg" id="timer-off" fill-rule="nonzero">
            <path d="M10 3h4c.55 0 1-.45 1-1s-.45-1-1-1h-4c-.55 0-1 .45-1 1s.45 1 1 1zm2 5c-.51 0-.92.39-.98.89L13 10.86V9c0-.55-.45-1-1-1zm0-2c3.87 0 7 3.13 7 7 0 1.12-.27 2.18-.74 3.12l1.47 1.47C20.53 16.25 21 14.68 21 13c0-2.12-.74-4.07-1.97-5.61l.75-.75a.993.993 0 000-1.4l-.01-.01a.993.993 0 00-1.4 0l-.75.75A8.962 8.962 0 0012 4c-1.66 0-3.22.48-4.57 1.29l1.45 1.45c.94-.47 2-.74 3.12-.74zm8.19 14.88L3.87 4.56a.996.996 0 10-1.41 1.41l2.07 2.07C3.61 9.42 3.05 11.03 3 12.76A8.998 8.998 0 0012 22c1.84 0 3.55-.55 4.98-1.5l1.79 1.79c.39.39 1.02.39 1.41 0 .4-.39.4-1.02.01-1.41zM12 20c-3.87 0-7-3.13-7-7 0-1.29.35-2.49.96-3.52l9.57 9.57c-1.04.6-2.24.95-3.53.95z"/>
        </g></svg>
